apps/www/public/images/logos/publicity/pika.svg

<svg width="82" height="60" viewBox="0 0 82 60" fill="none" xmlns="http://www.w3.org/2000/svg">
<path d="M33.8999 20.4868H30.9889V23.5342H33.8999V20.4868ZM71.1927 35.9934V28.7145C71.1927 24.4596 68.5296 22.5615 62.5554 22.5615C57.5356 22.5615 54.5396 24.8185 54.5396 28.5991H57.4747C57.4747 26.336 59.0418 25.3283 62.5554 25.3283C66.8001 25.3283 68.3062 26.2693 68.3062 28.9224C67.269 29.0617 66.2845 29.1853 65.3224 29.305C58.1081 30.207 53.7541 30.7521 53.7541 34.9267C53.7541 36.5641 54.3812 37.725 55.6722 38.474C56.8273 39.1445 58.8856 39.5131 61.4674 39.5131C64.9448 39.5131 67.8394 38.6679 68.6695 37.4111C68.5945 38.5543 68.6695 39.2641 68.6695 39.2701H71.3166C71.3125 39.2583 71.1927 37.9563 71.1927 35.9934ZM68.3062 32.5658C68.3062 34.3403 67.677 35.558 66.3818 36.2856C65.2247 36.9365 63.4852 37.2405 60.9113 37.2405C59.3341 37.2405 56.6893 36.9365 56.6893 34.9032C56.6893 33.911 57.3794 33.3051 59.0703 32.815C60.8932 32.2854 63.9562 31.8755 68.3083 31.3892V32.5658H68.3062ZM56.8354 34.868H56.7626V34.9365H56.8354V34.868ZM20.8802 20.4868H10.4304V39.2701H13.3413V32.5875H20.8802C27.922 32.5875 28.6832 28.356 28.6832 26.5381C28.681 24.7185 27.9197 20.4868 20.8802 20.4868ZM20.3545 29.7992H13.3413V23.2753H20.3565C24.0023 23.2753 25.5571 24.2499 25.5571 26.5362C25.5552 28.8226 24.0002 29.7992 20.3545 29.7992ZM53.3766 22.6753H49.3452L39.2994 30.4658V20.4868H36.3885V39.2701H39.2994V31.3402L49.4385 39.2701H53.6607L42.8314 30.6971L53.3766 22.6753ZM33.8999 24.8518H30.9889V39.2701H33.8999V24.8518Z" fill="#7E7E7E"/>
</svg>

<svg xmlns="http://www.w3.org/2000/svg" width="82" height="60" fill="none" viewBox="0 0 82 60"><path fill="#7e7e7e" d="M33.9 20.487h-2.911v3.047h2.91zm37.293 15.506v-7.279c0-4.254-2.663-6.152-8.638-6.152-5.02 0-8.015 2.256-8.015 6.037h2.935c0-2.263 1.567-3.27 5.08-3.27 4.245 0 5.751.94 5.751 3.593-1.037.14-2.022.263-2.984.383-7.214.902-11.568 1.447-11.568 5.622 0 1.637.627 2.798 1.918 3.547 1.155.67 3.214 1.04 5.795 1.04 3.478 0 6.372-.846 7.203-2.103-.076 1.143 0 1.853 0 1.86h2.647c-.004-.013-.124-1.315-.124-3.278m-2.887-3.427c0 1.774-.629 2.992-1.924 3.72-1.157.65-2.897.954-5.47.954-1.578 0-4.223-.303-4.223-2.337 0-.992.69-1.598 2.381-2.088 1.823-.53 4.886-.94 9.238-1.426v1.177zm-11.47 2.302h-.073v.069h.072zM20.88 20.487H10.43V39.27h2.911v-6.683h7.54c7.041 0 7.802-4.231 7.802-6.049-.002-1.82-.763-6.051-7.803-6.051m-.525 9.312H13.34v-6.524h7.016c3.645 0 5.2.975 5.2 3.261C25.555 28.823 24 29.8 20.355 29.8m33.022-7.124h-4.032L39.3 30.465v-9.978h-2.91V39.27h2.91v-7.93l10.14 7.93h4.222l-10.83-8.573zM33.9 24.852h-2.911V39.27h2.91z"/></svg>
